diving-scuba.svg

<svg fill="currentColor" viewBox="0 0 24 24"><path d="M1 13c0-1.1.9-2 2-2s2 .9 2 2-.9 2-2 2-2-.9-2-2m7.89-2.89 4.53-1.21-.78-2.9-4.53 1.21c-.8.21-1.28 1.04-1.06 1.84s1.04 1.28 1.84 1.06M20.5 5.9 23 3l-1-1-3 3-2 4-9.5 2.87c-.8.2-1.37.89-1.5 1.68L5.24 18 2.4 21.8 4 23l3-4 1.14-3.14L14 14l5-3.5z"/></svg>

<svg  viewBox="0 0 24 24" fill="currentColor"><path  d="M1 13C1 11.9 1.9 11 3 11S5 11.9 5 13 4.1 15 3 15 1 14.1 1 13M8.89 10.11L13.42 8.9L12.64 6L8.11 7.21C7.31 7.42 6.83 8.25 7.05 9.05C7.27 9.85 8.09 10.33 8.89 10.11M20.5 5.9L23 3L22 2L19 5L17 9L7.5 11.87C6.7 12.07 6.13 12.76 6 13.55L5.24 18L2.4 21.8L4 23L7 19L8.14 15.86L14 14L19 10.5L20.5 5.9Z"/></svg>
